icons/svg/announcement_12.svg

<?xml version="1.0" encoding="UTF-8"?>
<svg width="12px" height="10px" viewBox="0 0 12 10" version="1.1" xmlns="http://www.w3.org/2000/svg" xmlns:xlink="http://www.w3.org/1999/xlink">
    <!-- Generator: Sketch 59.1 (86144) - https://sketch.com -->
    <title>meetings/announcement_12</title>
    <desc>Created with Sketch.</desc>
    <g id="Icons-Webex" stroke="none" stroke-width="1" fill="none" fill-rule="evenodd">
        <g id="meetings/feedback_12" transform="translate(0.000000, -1.000000)" fill="#171B1F">
            <g id="feedback_12" transform="translate(0.000000, 1.000000)">
                <path d="M11,7.4902 C11,7.6552 10.929,7.8052 10.805,7.9032 C10.741,7.9542 10.603,8.0302 10.424,7.9882 L3,6.2162 L3,2.6082 L10.426,1.0132 C10.602,0.9722 10.742,1.0482 10.806,1.0992 C10.929,1.1962 11,1.3462 11,1.5112 L11,7.4902 Z M3.989,8.6352 C4.028,8.7522 3.982,8.8422 3.951,8.8862 C3.889,8.9712 3.534,9.0482 3.456,8.7962 L2.953,7.2332 L3.572,7.3812 L3.989,8.6352 Z M1,4.4032 C1,3.8482 1.288,3.1692 2,2.8782 L2,5.9272 C1.286,5.6322 1,4.9552 1,4.4032 L1,4.4032 Z M11.425,0.3132 C11.072,0.0362 10.625,-0.0618 10.203,0.0382 L2.002,1.8002 C0.805,2.0892 0,3.1352 0,4.4022 C0,5.5992 0.721,6.5912 1.81,6.9422 L2.502,9.0942 C2.667,9.6362 3.158,10.0012 3.726,10.0012 C4.136,10.0012 4.522,9.8032 4.763,9.4692 C5.002,9.1372 5.067,8.7072 4.938,8.3182 L4.718,7.6542 L10.19,8.9612 C10.303,8.9882 10.417,9.0012 10.53,9.0012 C10.85,9.0012 11.163,8.8932 11.424,8.6892 C11.79,8.4002 12,7.9642 12,7.4902 L12,1.5112 C12,1.0382 11.79,0.6012 11.425,0.3132 L11.425,0.3132 Z" id="fill"></path>
            </g>
        </g>
    </g>
</svg>

<svg width="12" height="10" xmlns="http://www.w3.org/2000/svg"><path d="M11 7.49a.52.52 0 01-.195.413.448.448 0 01-.381.085L3 6.216V2.608l7.426-1.595a.452.452 0 01.38.086.52.52 0 01.194.412v5.98zM3.989 8.635a.275.275 0 01-.038.251c-.062.085-.417.162-.495-.09l-.503-1.563.619.148.417 1.254zM1 4.403c0-.555.288-1.234 1-1.525v3.05c-.714-.296-1-.973-1-1.525zM11.425.313a1.437 1.437 0 00-1.222-.275L2.002 1.8C.805 2.09 0 3.135 0 4.402c0 1.197.721 2.19 1.81 2.54l.692 2.152a1.28 1.28 0 102.436-.776l-.22-.664 5.472 1.307a1.449 1.449 0 001.234-.272C11.79 8.4 12 7.964 12 7.49V1.511c0-.473-.21-.91-.575-1.198z" fill="#171B1F" fill-rule="evenodd"/></svg>
